symbols/web/request_quote/materialsymbolsoutlined/request_quote_wght500gradN25fill1_48px.svg

<svg xmlns="http://www.w3.org/2000/svg" height="48" width="48"><path d="M11.2 44.05q-1.3 0-2.275-.975-.975-.975-.975-2.325V7.25q0-1.35.975-2.325Q9.9 3.95 11.2 3.95h18L40.1 14.8v25.95q0 1.35-.975 2.325-.975.975-2.325.975Zm11.3-6.2h3v-2h3q.65 0 1.075-.425Q30 35 30 34.35v-6.6q0-.6-.425-1.05-.425-.45-1.075-.45H21V22.7h9v-3h-4.5v-2h-3v2h-3q-.65 0-1.075.425Q18 20.55 18 21.2v6.55q0 .65.425 1.1.425.45 1.075.45H27v3.55h-9v3h4.5Zm5.4-23.05h7.9l-7.9-7.85Z"/></svg>

<svg xmlns="http://www.w3.org/2000/svg" height="48" width="48"><path d="M11.2 44.05Q9.9 44.05 8.925 43.075Q7.95 42.1 7.95 40.75V7.25Q7.95 5.9 8.925 4.925Q9.9 3.95 11.2 3.95H29.2L40.1 14.8V40.75Q40.1 42.1 39.125 43.075Q38.15 44.05 36.8 44.05ZM22.5 37.9H25.5V35.9H28.5Q29.15 35.9 29.575 35.475Q30 35.05 30 34.4V27.85Q30 27.2 29.575 26.775Q29.15 26.35 28.5 26.35H21V22.8H30V19.75H25.5V17.75H22.5V19.75H19.5Q18.85 19.75 18.425 20.2Q18 20.65 18 21.25V27.85Q18 28.5 18.425 28.925Q18.85 29.35 19.5 29.35H27V32.9H18V35.9H22.5ZM27.9 14.8H35.8L27.9 6.95Z"/></svg>
